packages/elvis-assets-icons/icons/svg/src/form_check-color.svg

<svg width="24" height="24" viewBox="0 0 24 24" fill="none" xmlns="http://www.w3.org/2000/svg">
<path d="M8.03192 3.72991C8.14382 3.58541 8.32162 3.5 8.50692 3.5C8.63548 3.5 8.7588 3.53977 8.86232 3.61477C8.98886 3.70669 9.07177 3.84138 9.09405 3.99474C9.11631 4.14731 9.07562 4.29986 8.98048 4.42272L6.69804 7.37009C6.59426 7.50359 6.4368 7.58702 6.2655 7.59848L6.26423 7.59856C6.25162 7.59924 6.23744 7.6 6.22376 7.6C6.06617 7.6 5.91662 7.54042 5.80488 7.43147L4.17475 5.85271C4.0622 5.74443 4 5.59879 4 5.44474C4 5.29071 4.06211 5.14516 4.17462 5.03689C4.28636 4.92797 4.43588 4.86842 4.59344 4.86842C4.75103 4.86842 4.90058 4.928 5.01232 5.03696L6.15972 6.14752L8.03192 3.72991Z" fill="#29D305"/>
<path d="M11.2638 24C11.0635 24 10.8743 23.922 10.7332 23.78C10.555 23.603 10.4779 23.349 10.5279 23.103L11.2788 19.353C11.3078 19.207 11.3789 19.074 11.484 18.969L19.1228 11.339C19.6634 10.798 20.3842 10.5 21.1511 10.5C21.915 10.5 22.6328 10.796 23.1734 11.332C24.2647 12.451 24.2737 14.222 23.2095 15.377C23.2065 15.381 23.1914 15.396 23.1884 15.399L15.5497 23.029C15.4456 23.134 15.3114 23.205 15.1652 23.234L11.4119 23.984C11.3619 23.995 11.3128 24 11.2638 24ZM12.2209 22.294L14.6477 21.809L22.1192 14.346C22.6188 13.798 22.6238 12.92 22.1182 12.401C22.1152 12.398 22.1002 12.383 22.0972 12.379C21.8569 12.14 21.5155 12 21.1511 12L21.1501 11.625V12C20.7857 12 20.4423 12.142 20.185 12.4L12.7064 19.87L12.2209 22.294Z" fill="black"/>
<path d="M2.25258 21C1.01016 21 0 19.991 0 18.75V2.25C0 1.009 1.01116 0 2.25258 0H12.8938C13.4955 0 14.0601 0.234 14.4856 0.657999L17.3609 3.53C17.7864 3.95499 18.0207 4.51999 18.0207 5.11999V8.24999C18.0207 8.66399 17.6843 8.99999 17.2698 8.99999C16.8553 8.99999 16.5189 8.66399 16.5189 8.24999V5.12099C16.5189 4.92399 16.4388 4.73099 16.2997 4.59099L13.4244 1.719C13.2822 1.578 13.094 1.5 12.8938 1.5H2.25258C1.83811 1.5 1.50172 1.836 1.50172 2.25V18.75C1.50172 19.164 1.83811 19.5 2.25258 19.5H7.5086C7.92308 19.5 8.25947 19.836 8.25947 20.25C8.25947 20.664 7.92308 21 7.5086 21H2.25258Z" fill="black"/>
<path d="M11.2638 24C11.0635 24 10.8743 23.922 10.7332 23.78C10.555 23.603 10.4779 23.349 10.5279 23.103L11.2788 19.353C11.3078 19.207 11.3789 19.074 11.484 18.969L19.1228 11.339C19.6634 10.798 20.3842 10.5 21.1511 10.5C21.915 10.5 22.6328 10.796 23.1734 11.332C24.2647 12.451 24.2737 14.222 23.2095 15.377C23.2065 15.381 23.1914 15.396 23.1884 15.399L15.5497 23.029C15.4456 23.134 15.3114 23.205 15.1652 23.234L11.4119 23.984C11.3619 23.995 11.3128 24 11.2638 24ZM12.2209 22.294L14.6477 21.809L22.1192 14.346C22.6188 13.798 22.6238 12.92 22.1182 12.401C22.1152 12.398 22.1002 12.383 22.0972 12.379C21.8569 12.14 21.5155 12 21.1511 12L21.1501 11.625V12C20.7857 12 20.4423 12.142 20.185 12.4L12.7064 19.87L12.2209 22.294Z" fill="black"/>
<path d="M2.25258 21C1.01016 21 0 19.991 0 18.75V2.25C0 1.009 1.01116 0 2.25258 0H12.8938C13.4955 0 14.0601 0.234 14.4856 0.657999L17.3609 3.53C17.7864 3.95499 18.0207 4.51999 18.0207 5.11999V8.24999C18.0207 8.66399 17.6843 8.99999 17.2698 8.99999C16.8553 8.99999 16.5189 8.66399 16.5189 8.24999V5.12099C16.5189 4.92399 16.4388 4.73099 16.2997 4.59099L13.4244 1.719C13.2822 1.578 13.094 1.5 12.8938 1.5H2.25258C1.83811 1.5 1.50172 1.836 1.50172 2.25V18.75C1.50172 19.164 1.83811 19.5 2.25258 19.5H7.5086C7.92308 19.5 8.25947 19.836 8.25947 20.25C8.25947 20.664 7.92308 21 7.5086 21H2.25258Z" fill="black"/>
<rect x="4.375" y="9.875" width="7.25" height="0.75" rx="0.375" fill="#29D305" stroke="black" stroke-width="0.75"/>
<rect x="4.375" y="13.375" width="4.25" height="0.75" rx="0.375" fill="#29D305" stroke="black" stroke-width="0.75"/>
</svg>

<svg width="24" height="24" fill="none" xmlns="http://www.w3.org/2000/svg"><path d="M8.032 3.73a.603.603 0 01.83-.115.568.568 0 01.118.808L6.698 7.37a.598.598 0 01-.433.228.597.597 0 01-.46-.167l-1.63-1.578a.563.563 0 010-.816.597.597 0 01.418-.169c.158 0 .308.06.42.169l1.147 1.11L8.032 3.73z" fill="#29D305"/><path d="M11.264 24c-.2 0-.39-.078-.53-.22a.744.744 0 01-.206-.677l.75-3.75a.747.747 0 01.206-.384l7.639-7.63a2.849 2.849 0 012.028-.839c.764 0 1.482.296 2.022.832 1.092 1.119 1.1 2.89.037 4.045l-.022.022-7.638 7.63a.745.745 0 01-.385.205l-3.753.75a.685.685 0 01-.148.016zm.957-1.706l2.427-.485 7.471-7.463c.5-.548.505-1.426 0-1.945a1.342 1.342 0 00-.967-.401l-.002-.375V12c-.364 0-.708.142-.965.4l-7.479 7.47-.485 2.424zM2.253 21A2.253 2.253 0 010 18.75V2.25A2.254 2.254 0 012.253 0h10.64a2.24 2.24 0 011.593.658L17.36 3.53c.425.425.66.99.66 1.59v3.13a.75.75 0 01-1.502 0V5.121c0-.197-.08-.39-.22-.53l-2.875-2.872a.749.749 0 00-.53-.219H2.253a.75.75 0 00-.751.75v16.5c0 .414.336.75.75.75H7.51a.75.75 0 110 1.5H2.253z" fill="#000"/><path d="M11.264 24c-.2 0-.39-.078-.53-.22a.744.744 0 01-.206-.677l.75-3.75a.747.747 0 01.206-.384l7.639-7.63a2.849 2.849 0 012.028-.839c.764 0 1.482.296 2.022.832 1.092 1.119 1.1 2.89.037 4.045l-.022.022-7.638 7.63a.745.745 0 01-.385.205l-3.753.75a.685.685 0 01-.148.016zm.957-1.706l2.427-.485 7.471-7.463c.5-.548.505-1.426 0-1.945a1.342 1.342 0 00-.967-.401l-.002-.375V12c-.364 0-.708.142-.965.4l-7.479 7.47-.485 2.424zM2.253 21A2.253 2.253 0 010 18.75V2.25A2.254 2.254 0 012.253 0h10.64a2.24 2.24 0 011.593.658L17.36 3.53c.425.425.66.99.66 1.59v3.13a.75.75 0 01-1.502 0V5.121c0-.197-.08-.39-.22-.53l-2.875-2.872a.749.749 0 00-.53-.219H2.253a.75.75 0 00-.751.75v16.5c0 .414.336.75.75.75H7.51a.75.75 0 110 1.5H2.253z" fill="#000"/><rect x="4.375" y="9.875" width="7.25" height=".75" rx=".375" fill="#29D305" stroke="#000" stroke-width=".75"/><rect x="4.375" y="13.375" width="4.25" height=".75" rx=".375" fill="#29D305" stroke="#000" stroke-width=".75"/></svg>
